storage/app/icons/phosphoricons/duotone/hourglass-high-duotone.svg

<svg xmlns="http://www.w3.org/2000/svg" fill="currentColor" viewBox="0 0 256 256"><path d="M192 64v11.64a8 8 0 0 1-3.18 6.36L128 128 67.2 82.4A8 8 0 0 1 64 76V64Z" opacity=".2"/><path d="M184 24H72a16 16 0 0 0-16 16v36a16.07 16.07 0 0 0 6.4 12.8l52.27 39.2-52.27 39.2A16.07 16.07 0 0 0 56 180v36a16 16 0 0 0 16 16h112a16 16 0 0 0 16-16v-35.64a16.09 16.09 0 0 0-6.35-12.77L141.27 128l52.38-39.59A16.09 16.09 0 0 0 200 75.64V40a16 16 0 0 0-16-16m0 16v16H72V40Zm0 176H72v-36l56-42 56 42.35Zm-56-98L72 76v-4h112v3.64Z"/></svg>

<svg xmlns="http://www.w3.org/2000/svg" viewBox="0 0 256 256" fill="currentColor"><path d="M192,64V75.64A8,8,0,0,1,188.82,82L128,128,67.2,82.4A8,8,0,0,1,64,76V64Z" opacity="0.2"/><path d="M184,24H72A16,16,0,0,0,56,40V76a16.07,16.07,0,0,0,6.4,12.8L114.67,128,62.4,167.2A16.07,16.07,0,0,0,56,180v36a16,16,0,0,0,16,16H184a16,16,0,0,0,16-16V180.36a16.09,16.09,0,0,0-6.35-12.77L141.27,128l52.38-39.59A16.09,16.09,0,0,0,200,75.64V40A16,16,0,0,0,184,24Zm0,16V56H72V40Zm0,176H72V180l56-42,56,42.35Zm-56-98L72,76V72H184v3.64Z"/></svg>
